lib/assets/icons/svg/outlined-media-camera.svg

<svg viewBox="0 0 24 24" xmlns="http://www.w3.org/2000/svg">
  <path  d="M 16 12.6 C 15.956 14.801 14.142 16.553 11.94 16.52 C 9.731 16.565 7.904 14.809 7.86 12.6 C 7.904 10.391 9.731 8.635 11.94 8.68 C 14.142 8.647 15.956 10.399 16 12.6 Z M 13.5 10.002 C 11.5 8.847 9 10.291 9 12.6 C 9 13.672 9.572 14.662 10.5 15.198 C 12.5 16.353 15 14.909 15 12.6 C 15 11.528 14.428 10.538 13.5 10.002 Z M 20 9.87 L 20 16.43 C 20.011 17.838 18.878 18.989 17.47 19 L 6.53 19 C 5.122 18.989 3.989 17.838 4 16.43 L 4 9.87 C 4.038 8.5 5.16 7.409 6.53 7.41 L 7.33 7.41 C 7.593 7.403 7.828 7.243 7.93 7 L 8.27 6.08 C 8.511 5.441 9.117 5.013 9.8 5 L 14.13 5 C 14.835 5.02 15.451 5.48 15.67 6.15 L 15.93 6.96 C 16.064 7.174 16.282 7.323 16.53 7.37 L 17.4 7.37 C 18.79 7.389 19.926 8.482 20 9.87 Z M 17.4 8.38 L 16.53 8.38 C 15.847 8.318 15.243 7.911 14.93 7.3 L 14.67 6.49 C 14.536 6.276 14.318 6.127 14.07 6.08 L 9.73 6.08 C 9.468 6.092 9.236 6.251 9.13 6.49 L 8.87 7.3 C 8.625 7.941 8.016 8.368 7.33 8.38 L 6.47 8.38 C 5.671 8.402 5.042 9.071 5.07 9.87 L 5.07 16.43 C 5.07 17.241 5.719 17.904 6.53 17.92 L 17.4 17.92 C 18.191 17.915 18.838 17.29 18.87 16.5 L 18.87 9.87 C 18.865 9.057 18.213 8.396 17.4 8.38 Z"/>
</svg>

<svg xmlns="http://www.w3.org/2000/svg" viewBox="0 0 24 24"><path d="M16 12.6a4 4 0 0 1-4.06 3.92 4 4 0 0 1-4.08-3.92 4 4 0 0 1 4.08-3.92A4 4 0 0 1 16 12.6zm-2.5-2.598c-2-1.155-4.5.289-4.5 2.598a3 3 0 0 0 1.5 2.598c2 1.155 4.5-.289 4.5-2.598a3 3 0 0 0-1.5-2.598zM20 9.87v6.56A2.55 2.55 0 0 1 17.47 19H6.53A2.55 2.55 0 0 1 4 16.43V9.87a2.53 2.53 0 0 1 2.53-2.46h.8a.67.67 0 0 0 .6-.41l.34-.92A1.67 1.67 0 0 1 9.8 5h4.33a1.67 1.67 0 0 1 1.54 1.15l.26.81a.909.909 0 0 0 .6.41h.87a2.64 2.64 0 0 1 2.6 2.5zm-2.6-1.49h-.87a2 2 0 0 1-1.6-1.08l-.26-.81a.909.909 0 0 0-.6-.41H9.73a.69.69 0 0 0-.6.41l-.26.81a1.68 1.68 0 0 1-1.54 1.08h-.86a1.44 1.44 0 0 0-1.4 1.49v6.56a1.49 1.49 0 0 0 1.46 1.49H17.4a1.48 1.48 0 0 0 1.47-1.42V9.87a1.5 1.5 0 0 0-1.47-1.49z"/></svg>
